X:1
T:The Riddle Song
M:4/4
L:1/4
Q:96
K:G
D/ | D/D/D/D/E/GA/ | GED3/2G/ |
w:I gave my love a cher ry that had no stone, I
A/A/A/G/B/de/ | dBA3/2A/ |
w:gave my love a chick en that had no bone, I
A/A/A/A/B/de/ | dBA3/2B/ |
w:told my love a sto ry that had no end, I
D/D/D/D/E/GA/ | GEHD3/2 ||
w:gave my love a ba by with no cry in'.
